Numix/24/emotes/face-cool.svg

<?xml version="1.0" encoding="UTF-8" standalone="no"?>
<svg
   xmlns:dc="http://purl.org/dc/elements/1.1/"
   xmlns:cc="http://creativecommons.org/ns#"
   xmlns:rdf="http://www.w3.org/1999/02/22-rdf-syntax-ns#"
   xmlns:svg="http://www.w3.org/2000/svg"
   xmlns="http://www.w3.org/2000/svg"
   xmlns:sodipodi="http://sodipodi.sourceforge.net/DTD/sodipodi-0.dtd"
   xmlns:inkscape="http://www.inkscape.org/namespaces/inkscape"
   width="24px"
   height="24px"
   viewBox="0 0 18 18"
   version="1.1"
   id="svg1061"
   inkscape:version="0.91 r"
   sodipodi:docname="face-cool.svg">
  <metadata
     id="metadata1074">
    <rdf:RDF>
      <cc:Work
         rdf:about="">
        <dc:format>image/svg+xml</dc:format>
        <dc:type
           rdf:resource="http://purl.org/dc/dcmitype/StillImage" />
      </cc:Work>
    </rdf:RDF>
  </metadata>
  <defs
     id="defs1072" />
  <sodipodi:namedview
     pagecolor="#ffffff"
     bordercolor="#666666"
     borderopacity="1"
     objecttolerance="10"
     gridtolerance="10"
     guidetolerance="10"
     inkscape:pageopacity="0"
     inkscape:pageshadow="2"
     inkscape:window-width="640"
     inkscape:window-height="480"
     id="namedview1070" />
  <g
     id="surface1">
    <path
       style=" stroke:none;fill-rule:nonzero;fill:rgb(100%,85.490196%,36.862745%);fill-opacity:1;"
       d="M 15.75 9 C 15.75 12.210938 12.726562 14.8125 9 14.8125 C 5.273438 14.8125 2.25 12.210938 2.25 9 C 2.25 5.789062 5.273438 3.1875 9 3.1875 C 12.726562 3.1875 15.75 5.789062 15.75 9 Z M 15.75 9 "
       id="path1064" />
    <path
       style=" stroke:none;fill-rule:nonzero;fill:rgb(39.607843%,39.607843%,39.607843%);fill-opacity:1;"
       d="M 11.222656 10.5 C 11.066406 11.144531 10.117188 11.625 9 11.625 L 9 12.375 C 10.28125 12.375 11.371094 11.582031 11.585938 10.5 Z M 11.222656 10.5 "
       id="path1066" />
    <path
       style=" stroke:none;fill-rule:nonzero;fill:rgb(1.176471%,19.607843%,26.27451%);fill-opacity:1;"
       d="M 6.058594 5.933594 C 5.671875 5.933594 5.425781 5.960938 5.421875 5.960938 C 5.414062 5.960938 4.558594 6.035156 4.109375 6.429688 C 3.839844 6.664062 3.800781 7.019531 3.800781 7.03125 C 3.800781 7.035156 3.769531 7.242188 3.777344 7.6875 C 3.789062 8.257812 4.027344 8.671875 4.085938 8.746094 C 4.09375 8.753906 4.101562 8.765625 4.109375 8.777344 C 4.242188 8.953125 4.648438 9.496094 6.054688 9.496094 C 7.308594 9.496094 7.707031 8.988281 7.730469 8.957031 C 7.753906 8.929688 8.242188 8.386719 8.402344 7.5 L 9.597656 7.5 C 9.757812 8.386719 10.246094 8.929688 10.269531 8.957031 C 10.292969 8.988281 10.691406 9.496094 11.945312 9.496094 C 13.351562 9.496094 13.757812 8.953125 13.890625 8.777344 C 13.898438 8.765625 13.90625 8.753906 13.914062 8.746094 C 13.972656 8.671875 14.210938 8.257812 14.222656 7.6875 C 14.230469 7.242188 14.199219 7.035156 14.199219 7.03125 C 14.199219 7.019531 14.160156 6.664062 13.890625 6.429688 C 13.441406 6.035156 12.585938 5.960938 12.578125 5.960938 C 12.574219 5.960938 12.328125 5.933594 11.941406 5.933594 L 11.890625 5.933594 C 11.808594 5.933594 11.390625 5.9375 10.945312 5.992188 C 10.890625 5.996094 10.835938 6.003906 10.785156 6.011719 L 10.578125 6.042969 C 10.203125 6.113281 9.941406 6.210938 9.792969 6.332031 C 9.613281 6.480469 9.578125 6.683594 9.570312 6.75 L 8.429688 6.75 C 8.421875 6.683594 8.386719 6.480469 8.207031 6.332031 C 8.058594 6.210938 7.796875 6.113281 7.425781 6.042969 L 7.214844 6.011719 C 7.164062 6.003906 7.109375 5.996094 7.054688 5.992188 C 6.609375 5.9375 6.191406 5.933594 6.109375 5.933594 Z M 6.058594 5.933594 "
       id="path1068" />
  </g>
</svg>

<svg xmlns="http://www.w3.org/2000/svg" width="24" height="24" viewBox="0 0 18 18">
 <g>
  <path d="m 15.75 9 c 0 3.211 -3.02 5.813 -6.75 5.813 c -3.727 0 -6.75 -2.602 -6.75 -5.813 c 0 -3.211 3.02 -5.813 6.75 -5.813 c 3.727 0 6.75 2.602 6.75 5.813 m 0 0" style="fill:#ffd95d;fill-opacity:1;stroke:none;fill-rule:nonzero"/>
  <path d="m 11.223 10.5 c -0.156 0.645 -1.105 1.125 -2.223 1.125 l 0 0.75 c 1.281 0 2.371 -0.793 2.586 -1.875 m -0.363 0" style="fill:#646464;fill-opacity:1;stroke:none;fill-rule:nonzero"/>
  <path d="m 6.06 5.934 c -0.387 0 -0.633 0.027 -0.637 0.027 c -0.008 0 -0.863 0.074 -1.313 0.469 c -0.27 0.234 -0.309 0.59 -0.309 0.602 c 0 0.004 -0.031 0.211 -0.023 0.656 c 0.012 0.57 0.25 0.984 0.309 1.059 c 0.008 0.008 0.016 0.02 0.023 0.031 c 0.133 0.176 0.539 0.719 1.945 0.719 c 1.254 0 1.652 -0.508 1.676 -0.539 c 0.023 -0.027 0.512 -0.57 0.672 -1.457 l 1.195 0 c 0.16 0.887 0.648 1.43 0.672 1.457 c 0.023 0.031 0.422 0.539 1.676 0.539 c 1.406 0 1.813 -0.543 1.945 -0.719 c 0.008 -0.012 0.016 -0.023 0.023 -0.031 c 0.059 -0.074 0.297 -0.488 0.309 -1.059 c 0.008 -0.445 -0.023 -0.652 -0.023 -0.656 c 0 -0.012 -0.039 -0.367 -0.309 -0.602 c -0.449 -0.395 -1.305 -0.469 -1.313 -0.469 c -0.004 0 -0.25 -0.027 -0.637 -0.027 l -0.051 0 c -0.082 0 -0.5 0.004 -0.945 0.059 c -0.055 0.004 -0.109 0.012 -0.16 0.02 l -0.207 0.031 c -0.375 0.07 -0.637 0.168 -0.785 0.289 c -0.18 0.148 -0.215 0.352 -0.223 0.418 l -1.141 0 c -0.008 -0.066 -0.043 -0.27 -0.223 -0.418 c -0.148 -0.121 -0.41 -0.219 -0.781 -0.289 l -0.211 -0.031 c -0.051 -0.008 -0.105 -0.016 -0.16 -0.02 c -0.445 -0.055 -0.863 -0.059 -0.945 -0.059 m -0.051 0" style="fill:#033143;fill-opacity:1;stroke:none;fill-rule:nonzero"/>
 </g>
</svg>
